X:1
T:G Major Samuel Holyoke, 1791
T:Issac Watts, 1717 (Psalm 97, Part 2)        88. 88. (L. M.) 
T:Edinburgh Transcribed from Harmonia Americana, 1791.
%%score [ 1 2 3 ]
L:1/8
Q:1/4=100
M:4/4
K:G
V:1 treble nm="Treble" snm="Tr."
V:2 treble-8 nm="Tenor" snm="T."
V:3 bass nm="Bass" snm="B."
V:1
"^1. Ye    heavens,  with  sounds  of  tri – umph ring;        Ye    an     –   gels,    burst      in – to      a     song;         Je – sus descends,     vic –" D2 | %1
 GA B^c d3 D | GA B^c d2 z G | B^c de f3 A | cd ef g2 z2 | d2 BG c2 z e/d/ | %6
"^1. – to     –    rious King,    And  leads        his   shi     –     ning   train a  –  long.    Ye     saints   that     sleep    in          dust,   a    –   rise;         Let" cB g f/e/ d2 z d | %7
 efgB cd e d/c/ | B2 TA2 G2 z G | dB ec Ac Bd | ec BG d2 z d | %11
"^1. joy    re    –    an    –    i      –   mate   your  clay;     Sprung to your Savior through the skies,  And round his throne your ho – mage pay." g2 Bc/d/ ec Ac | %12
 BA GF G2 z2 | d2 cB e2 (3efg | c3 B/A/ d3 f | g2 dg fe dc | BA GF G4 |] %17
V:2
"^2. Then   let      the       sons    of  heaven  draw  nigh,     While  to       th'a   –   sto–nished hosts you tell,           How feeble mor  –  tals" A2 | %1
 BA G2 F3 d | Bd g2 f2 z d | d^c B2 A3 [Fd] | G2 c2 B2 z2 | B2 GB e2 z g | %6
"^2.  rose             so     high  From  graves     and  worms,    from  sin  and  hell.       Tell     them,   in         ac   –   cents     like     their   own,    What" fe/f/ e d/c/ B2 z B | %7
 cded ef g f/e/ | d2 Tc2 B2 z B | BG G2 FA GB | cA GE A2 z B | %11
"^2.  an    in     –    car   –  nate      God  could  do;           Then point to Je–sus     on  the  throne,  And  boast,  that  Je – sus      died   for   you." e2 d2 cg fe | %12
 dc BA B2 z2 | d2 fg c2 (3cde | A3 G F3 A | B2 BG A2 Be | dc BA B4 |] %17
V:3
"^3. Trans–por–ted,      they    no    more  can      hear;     Their  voi  –  ces      catch    the   sa – cred  name;         Harmonious to        his" D,2 | %1
 G,F, E,2 D,3 F, | G,F, E,2 D,2 z G, | G,A, B,C D3 D | C2 A,2 G,2 z2 | G,2 G,E, C,2 z C,/B,,/ | %6
"^3. Fa       –      ther’s  ear,      Je – sus           the   God,        their harps proclaim.    Sin    hath      its      dire      in    –   cur  –  sions   made,     That" A,,B,,C,D, G,2 z G, | %7
 E,3 G, C3 C | D2 D,2 G,2 z G, | G,2 C,2 [D,F,]2 G,2 | [C,E,]2 E,2 D,2 z B,, | %11
"^3. thou might   prove   thy      power to     save;         And death its ensigns wide displayed,   That thou might tri – umph" C,2 G,A,/B,/ CE CA, | %12
"^_______________________________________________________\nEdited by B. C. Johnston, 2016\nGrace eighth-notes following converted to regular eighth-notes in measures 2, 3, 4, and 5." D2 D,2 G,2 z2 | %13
 B,2 A,G, C2 C,2 | F,3 G, D,3 D, | G,2 G,2 D,C, B,,C, | D,2"^o’er the grave.\n" [D,,D,]2 G,,4 |] %17

